X: 1
P: Money Musk
O: Scotland
R: reel
N: Originally in strathspey time
M: C|
Z: Transcribed to abc by Mary Lou Knack 9/1/98
K: A
   f | "A"eAcA eA"D"df | "A"eAcA "E7"Bcdf | "A"eAcA cdea |1 "D"fd"E7"Be "A"cAA :|2 "D"fd"E7"BG "A"A3 |]
|: g | "A"aefa ea"E7"cg | "A"ae"E7"db "A"ca"E7"Bg | "A"aefa eace |1 "D"fd"E7"Be "A"cAA :|2 "D"fd"E7"BG "A"A3 |]
|: B | "A"c2cA "E7"d2dB | "A"c2cA "E7"BAFE |1,3 "A"c2cA "E7"d2dB | "A"ecBA "(E7)"FGA \
                                          :|2,4 "A"ABcd eaga | "D"fe"E7"fg "A"a3 :|
